X:4
T:Pols etter Strickert-Iver (pols)
Z:Track 6, Smaviltlaget, Lader Om; 2008 Brian Wilson <Brian.Wilson@alumni.brown.edu>
M:3/4
L:1/8
K:D
K: Dm
|: zA f2 u(f>e) | v(d/e/f/g/) ua2 a>g | (g<e) f2 f>e | (d/e/f/g/) ua4-
| a3/2(e/ f2) (f>e) | (d/e/f/g/) a2 a>g | (g<e) f2 f>e | (d^c) ud4 :|
K: D
| d(A df) a>a | (ad') (d'e) e>f | g3/2(b/ af) d>f | e3/2(g/ f/)d/f e/(c/e)
| d2 (df) a>a | (ad') (d'e) e>f | g3/2(b/ af) d>f | e/c/e (d4 :|
